X:1
T:Title
%%score 1 { ( 2 4 ) | ( 3 5 6 7 ) }
L:1/8
M:4/4
K:Bb
V:1 treble nm="Akkordion"
V:2 treble nm="Grand Piano"
V:4 treble 
V:3 bass 
V:5 bass 
V:6 bass 
V:7 bass 
V:1
 z8[Q:1/4=85] | z8 | z8 | z8 |[M:3/4] z6 |[M:1/4] D>E |[M:4/4] F2 =EF GFDF | B6 F>B | %8
 d2 AB cB F>^F | G6 G>G | G2 ^FG AGEG | c6 c>c | c2 GA B<=E d>c |[M:3/4] c6 |[M:1/4] D>E | %15
[M:4/4] F2 B>A c<B G<B | F6 D>E | F2 BA A<G d>c | c6 dc | cBAB D2 FB | AG^FG e2 dc | B2 AB cG B<A | %22
[M:3/4] B6 |] %23
V:2
 z4 z2 D>E | D2- [D-B]>[DA] c<B G<B | [B,DF]d'bf dB A>G | F2 [FA]>[FB] c<G B<A | %4
[M:3/4] B2- [EB-]2 [DB]2 |[M:1/4] D>E |[M:4/4] [DF]2 [_D=E][=DF] [_EG][DF]DF | %7
 z f'/d'/- d'/b/f (3d'bf .d>B | [Fd]2 [DA][DB] cB [DF]>^F | %9
 z g'/e'/- e'/c'/g (3e'c'g .e>[K:bass]G, | E8 | z ce[cg] [ec']2 z2 | c2 z2 z4 |[M:3/4] c6 | %14
[M:1/4] D>E |[M:4/4] D2- [D-B]>[D-A] [D-c]<[D-B] [D-G]<[D-B] | D2- [CD-]<[D-E] [B,D]2 [B,D]>E | %17
 D2- [D-B][DA] =E2- [E-d]>[Ec] | z e'c'a fedc | .c2 z2 z2 .F2 | AG^FG [Ge]2 [Gd][EGc] | %21
 [DFB]2 [CEA][DB] [=Ec][EG] [_EB]<[EA] |[M:3/4] z d' .b2 d'b |] %23
V:3
 z4 z2 B,>C | z B, F,>^F, G,2 B,<F, | %2
 B,,[K:treble][Bf][Fd][DB] [B,F][K:bass][F,D] [=E,B,_D]>[E,B,D] | %3
 [F,B,D]2 [E,C]>[D,B,] G,<C [F,CE]2 |[M:3/4] z2 G,>^F, =F,2 |[M:1/4] B,>C | %6
[M:4/4] B,,F,B,F, B,,B,F,[B,D] | [B,,F,]6[K:treble] [DF]>D | z4 z2 B,2 | [E,B,E]6 G,2 | z8 | %11
 z E3- E3/2 z/[K:treble] z2 | z2 .=E4[K:treble] z2 |[M:3/4][K:bass] [F,A,E]6 |[M:1/4] B,>C | %15
[M:4/4] z4 E4 | [B,,B,]2 [F,A,]2 B,,2 z z/ C/ | z2 F,B, z/[K:treble] G3/2 G,>[K:bass]B, | %18
 z2[K:treble] z c- c3/2 z/[K:bass] z2 | B,,F,B,F, B,,F,B,F, | z B,A,B, z/ C3/2 [D,B,]E, | %21
 F,2 ^F,G, z C z/ C3/2 |[M:3/4] z[K:treble] f .d2 fd |] %23
V:4
 x8 | F2 z2 E4 | x8 | z4 =E2 z2 |[M:3/4] [B,D]2 z2 z2 |[M:1/4] x2 |[M:4/4] x8 | [DB]6 z2 | %8
 z4 D2 z2 | G6 z2[K:bass] | z2 ^F,G, A,G,E,G, | G2 G4 z2 | z =EGA B<E d>c |[M:3/4] x6 |[M:1/4] x2 | %15
[M:4/4] [B,F]2 z2 z4 | F6 z2 | [B,F]2 z2 .[B,A]2 z2 | c4 z4 | D-[D-B][D-A][DB] D2 D-[DB] | x8 | %21
 x8 |[M:3/4] [B,DB]6 |] %23
V:5
 x8 | B,,4 B,,4 | x[K:treble] x4[K:bass] x3 | z4 C,2 z2 |[M:3/4] B,,6 |[M:1/4] x2 |[M:4/4] x8 | %7
 x6[K:treble] x2 | B,,D,B,F, B,,F, z z/ D/ | x8 | [C,-C]8 | %11
 [C,-E]2 [C,-G,][C,E,] C,2[K:treble] c>c | z2 B,A, z2[K:treble] [=EB]2 |[M:3/4][K:bass] x6 | %14
[M:1/4] [B,,F,]2 |[M:4/4] z2 F,>^F, G,2 B,<F, | z4 z2 F,2 | B,,4 C,4[K:treble][K:bass] | %18
 z[K:treble] g .e2 AG[K:bass][F,A,F][F,E] | x8 | [E,E]4 C,2 z2 | z4 C,2 ^F,2 | %22
[M:3/4] B,,6[K:treble] |] %23
V:6
 x8 | x8 | x[K:treble] x4[K:bass] x3 | x8 |[M:3/4] x6 |[M:1/4] x2 |[M:4/4] x8 | x6[K:treble] x2 | %8
 x8 | x8 | G,2 z2 z4 | C6[K:treble] z2 | z4 G,4[K:treble] |[M:3/4][K:bass] x6 |[M:1/4] x2 | %15
[M:4/4] B,,8 | x8 | x9/2[K:treble] x3[K:bass] x/ | [F,A,E]6[K:treble][K:bass] z2 | x8 | x8 | x8 | %22
[M:3/4] x[K:treble] x5 |] %23
V:7
 x8 | x8 | x[K:treble] x4[K:bass] x3 | x8 |[M:3/4] x6 |[M:1/4] x2 |[M:4/4] x8 | x6[K:treble] x2 | %8
 x8 | x8 | x8 | x6[K:treble] x2 | C,8[K:treble] |[M:3/4][K:bass] x6 |[M:1/4] x2 |[M:4/4] x8 | x8 | %17
 x9/2[K:treble] x3[K:bass] x/ | x[K:treble] x5[K:bass] x2 | x8 | x8 | x8 |[M:3/4] x[K:treble] x5 |] %23

